lib/logo_tmp/nrk-logo-nrk-p3-x-title-below.svg

<svg width="54" height="36" viewBox="0 0 54 36" fill="none" xmlns="http://www.w3.org/2000/svg">
<path fill-rule="evenodd" clip-rule="evenodd" d="M0 0H36V36H0V0ZM11.6261 15.9996H8.30763V28.0564H11.6261V15.9996ZM15.8336 15.9996H12.1071C12.1071 15.9996 14.2243 19.4705 14.2482 19.5142C14.4104 19.7894 14.4203 19.9584 14.2619 20.2239L12.1071 23.7516H15.8336C15.8336 23.7516 17.6305 20.817 17.8762 20.4097C18.1201 20.0021 18.1091 19.7488 17.8664 19.3304C17.6185 18.9087 17.6024 18.8825 16.1452 16.5075L16.1439 16.5052L16.1436 16.5048L16.1435 16.5046L15.8336 15.9996ZM26.2699 15.9996C26.2699 15.9996 27.3789 17.7839 27.5043 17.9971C27.7477 18.4168 27.7587 18.6707 27.514 19.0796C27.3431 19.363 25.877 21.7893 25.877 21.7893C26.1457 22.2277 26.5036 22.8012 26.8178 23.3047L26.8182 23.3053C27.141 23.8225 27.4176 24.2658 27.5041 24.413C27.7476 24.8327 27.7586 25.0866 27.514 25.4955C27.4673 25.5729 27.3724 25.7322 27.2479 25.9412L27.2479 25.9412L27.2467 25.9432L27.2463 25.944L27.2458 25.9448C26.9141 26.5015 26.3744 27.4076 25.9772 28.0564H22.5723L24.4366 24.9966L22.503 21.7554L24.237 18.9179H20.0364L18.2941 15.9996H26.2699ZM19.8318 22.1909C19.307 23.0471 18.4291 24.4818 18.2648 24.7616C18.0303 25.1658 18.0197 25.4104 18.2554 25.8042C18.4198 26.0771 19.3047 27.5232 19.8319 28.3845C20.3592 27.5231 21.244 26.077 21.4085 25.8042C21.6441 25.4103 21.6335 25.1658 21.3991 24.7616C21.2345 24.4818 20.3565 23.0471 19.8318 22.1909ZM18.3585 9.81044C18.5652 9.93131 18.8007 9.99394 19.0401 9.99164C19.2781 9.99442 19.5124 9.93173 19.7173 9.81044C19.9192 9.69157 20.0867 9.52236 20.2037 9.31937C20.3246 9.11265 20.3872 8.87709 20.385 8.63763C20.3876 8.39963 20.3249 8.16547 20.2037 7.96063C20.0855 7.75985 19.9181 7.59247 19.7173 7.47433C19.5124 7.35325 19.2782 7.29058 19.0402 7.29314C18.8008 7.29096 18.5653 7.35358 18.3585 7.47433C18.1557 7.59145 17.9865 7.75896 17.8674 7.96063C17.7461 8.16542 17.6834 8.39961 17.6861 8.63763C17.6837 8.87711 17.7464 9.11271 17.8674 9.31937C17.9853 9.52325 18.1546 9.69261 18.3585 9.81044ZM10.7023 7.43147H8.30763V14.2139H10.7023V7.43147ZM12.3851 14.2139L10.8464 7.43147L12.3753 7.4313C12.6939 7.42616 13.0034 7.53654 13.2459 7.74177C13.4867 7.93892 13.6487 8.21511 13.7025 8.52048L14.9912 14.2139H12.3851ZM17.5305 14.2139H15.1356V7.43147H17.5305V14.2139ZM22.9255 14.2139H20.5308V7.43147H22.9255V14.2139ZM25.0572 7.43147H27.6922L25.7977 10.517C25.7349 10.6071 25.6998 10.7133 25.6967 10.8229C25.7076 10.9352 25.7456 11.0433 25.8073 11.1381C25.8137 11.1445 25.8618 11.2224 25.9515 11.372C26.0413 11.5218 26.1583 11.7144 26.3026 11.9499C26.4468 12.1855 26.5991 12.4323 26.7594 12.6904C26.9197 12.9484 27.0703 13.1935 27.2114 13.426C27.3524 13.6584 27.5127 13.9212 27.6922 14.2141H25.0572C24.9033 13.9656 24.7654 13.7411 24.6436 13.5405C24.5219 13.34 24.3889 13.1234 24.2445 12.8909C24.1001 12.6583 23.9608 12.4323 23.8263 12.2128C23.6918 11.9932 23.5748 11.8005 23.4753 11.6349C23.3758 11.4692 23.3069 11.3577 23.2685 11.3005C23.1785 11.1559 23.1241 10.9923 23.1097 10.8229C23.1173 10.6551 23.1723 10.4929 23.2685 10.3548C23.3069 10.2975 23.3758 10.186 23.4753 10.0204C23.5746 9.85464 23.6916 9.66194 23.8263 9.44233C23.9611 9.22272 24.1005 8.9951 24.2445 8.75946C24.3888 8.52383 24.5218 8.3057 24.6436 8.10509C24.7654 7.90448 24.9033 7.67995 25.0572 7.43147Z" fill="white"/>
<path d="M53.5412 25.0066L48.7069 17.7023L53.1235 11.0034H50.914L47.7054 16.3358L44.1855 11.0034H41.7574L46.2934 17.7996L41.5385 25.0063H43.7877L47.3278 19.2512L51.1327 25.0063L53.5412 25.0066Z" fill="white"/>
</svg>

<svg xmlns="http://www.w3.org/2000/svg" viewBox="0 0 54 36"><path fill="#fff" fill-rule="evenodd" d="M0 0h36v36H0V0Zm11.626 16H8.308v12.056h3.318V16Zm4.208 0h-3.727s2.117 3.47 2.141 3.514c.162.275.172.444.014.71l-2.155 3.528h3.727s1.797-2.935 2.042-3.342c.244-.408.233-.661-.01-1.08-.247-.421-.264-.447-1.72-2.822l-.002-.003-.31-.505Zm10.436 0s1.109 1.784 1.234 1.997c.244.42.255.674.01 1.083l-1.637 2.71c.269.438.627 1.011.94 1.515h.001c.323.518.6.96.686 1.108.244.42.255.674.01 1.082l-.266.446-.001.002v.001h-.001c-.332.558-.872 1.464-1.269 2.112h-3.405l1.865-3.06-1.934-3.24 1.734-2.838h-4.2L18.293 16h7.976Zm-6.438 6.19c-.525.857-1.403 2.292-1.567 2.572-.235.404-.245.648-.01 1.042.165.273 1.05 1.72 1.577 2.58.527-.86 1.412-2.307 1.576-2.58.236-.394.226-.638-.009-1.042-.165-.28-1.043-1.715-1.567-2.571ZM18.358 9.81c.207.121.443.184.682.182a1.3 1.3 0 0 0 .677-.182 1.355 1.355 0 0 0 .668-1.172 1.302 1.302 0 0 0-.181-.677 1.372 1.372 0 0 0-.487-.487 1.303 1.303 0 0 0-.677-.18 1.36 1.36 0 0 0-1.173.667 1.3 1.3 0 0 0-.18.677 1.344 1.344 0 0 0 .672 1.173Zm-7.656-2.379H8.308v6.783h2.394V7.43Zm1.683 6.783L10.846 7.43h1.53c.318-.005.627.106.87.31.24.198.403.474.457.78l1.288 5.693h-2.606Zm5.146 0h-2.395V7.43h2.395v6.783Zm5.395 0H20.53V7.43h2.395v6.783Zm2.131-6.783h2.635l-1.894 3.086a.563.563 0 0 0-.101.306c.01.112.049.22.11.315.007.007.055.084.145.234l.35.578.457.74c.16.258.311.504.452.736l.481.788h-2.635a90.625 90.625 0 0 1-.413-.674c-.122-.2-.255-.417-.4-.65a136.475 136.475 0 0 1-.769-1.255 9.532 9.532 0 0 0-.207-.335 1.076 1.076 0 0 1-.158-.477.89.89 0 0 1 .159-.468c.038-.058.107-.169.206-.335l.351-.578a406.076 406.076 0 0 0 .818-1.337c.121-.2.26-.425.413-.674Z" clip-rule="evenodd"/><path fill="#fff" d="m53.541 25.007-4.834-7.305 4.416-6.699h-2.209l-3.209 5.333-3.52-5.333h-2.428l4.536 6.797-4.755 7.206h2.25l3.54-5.755 3.805 5.755h2.408Z"/></svg>
